svgs/sharp-light/florin-sign.svg

<svg xmlns="http://www.w3.org/2000/svg" viewBox="0 0 384 512"><!--! Font Awesome Pro 6.6.0 by @fontawesome - https://fontawesome.com License - https://fontawesome.com/license (Commercial License) Copyright 2024 Fonticons, Inc. --><path d="M322.4 32c-32.1 0-61.2 19.2-73.7 48.8L188.2 224 32 224l0 32 142.6 0L105.8 418.7C98.3 436.5 80.9 448 61.6 448L16 448 0 448l0 32 16 0 45.6 0c32.1 0 61.2-19.2 73.7-48.8L209.4 256 352 256l0-32-129.1 0L278.2 93.3C285.7 75.5 303.1 64 322.4 64L368 64l16 0 0-32-16 0-45.6 0z"/></svg>

<svg xmlns="http://www.w3.org/2000/svg" viewBox="0 0 384 512"><!--! Font Awesome Pro 6.4.0 by @fontawesome - https://fontawesome.com License - https://fontawesome.com/license (Commercial License) Copyright 2023 Fonticons, Inc. --><path d="M322.4 32c-32.1 0-61.2 19.2-73.7 48.8L188.2 224H32v32H174.6L105.8 418.7C98.3 436.5 80.9 448 61.6 448H16 0v32H16 61.6c32.1 0 61.2-19.2 73.7-48.8L209.4 256H352V224H222.9L278.2 93.3C285.7 75.5 303.1 64 322.4 64H368h16V32H368 322.4z"/></svg>
